src/auth/components/img/cancel.svg

<svg height="30" viewBox="0 0 30 30" width="30" xmlns="http://www.w3.org/2000/svg"><path d="m1.57894737 13c-.87201316 0-1.57894737.6715463-1.57894737 1.5 0 .82845.70693421 1.5 1.57894737 1.5h26.84210523c.8720132 0 1.5789474-.67155 1.5789474-1.5 0-.8284537-.7069342-1.5-1.5789474-1.5zm11.92105263 14.9210526c0 .8720132.67155 1.5789474 1.5 1.5789474s1.5-.7069342 1.5-1.5789474v-26.84210523c0-.87201316-.67155-1.57894737-1.5-1.57894737s-1.5.70693421-1.5 1.57894737z" fill="#fff" transform="matrix(.70710678 .70710678 -.70710678 .70710678 14.646447 -6.35965)"/></svg>

<?xml version="1.0" encoding="UTF-8"?>
<svg width="30px" height="30px" viewBox="0 0 30 30" version="1.1" xmlns="http://www.w3.org/2000/svg" xmlns:xlink="http://www.w3.org/1999/xlink">
    <!-- Generator: Sketch 46.2 (44496) - http://www.bohemiancoding.com/sketch -->
    <title>04</title>
    <desc>Created with Sketch.</desc>
    <defs></defs>
    <g id="ICO" stroke="none" stroke-width="1" fill="none" fill-rule="evenodd">
        <g id="04" fill-rule="nonzero" fill="#fff">
            <path d="M1.57894737,13 C0.706934211,13 0,13.6715463 0,14.5 C0,15.32845 0.706934211,16 1.57894737,16 L28.4210526,16 C29.2930658,16 30,15.32845 30,14.5 C30,13.6715463 29.2930658,13 28.4210526,13 L1.57894737,13 Z M13.5,27.9210526 C13.5,28.7930658 14.17155,29.5 15,29.5 C15.82845,29.5 16.5,28.7930658 16.5,27.9210526 L16.5,1.07894737 C16.5,0.206934211 15.82845,-0.5 15,-0.5 C14.17155,-0.5 13.5,0.206934211 13.5,1.07894737 L13.5,27.9210526 Z" id="Shape" transform="translate(15.000000, 14.500000) rotate(45.000000) translate(-15.000000, -14.500000) "></path>
        </g>
    </g>
</svg>
